public/images/404.svg

<svg width="632" height="422" viewBox="0 0 632 422" fill="none" xmlns="http://www.w3.org/2000/svg">
<path d="M585.768 49.9131H53.531C38.067 49.9131 25.531 62.4491 25.531 77.9131V391.6C25.531 407.064 38.067 419.6 53.531 419.6H585.768C601.232 419.6 613.768 407.064 613.768 391.6V77.9131C613.768 62.4491 601.232 49.9131 585.768 49.9131Z" fill="#0F172A" stroke="#E5E7EB" stroke-width="4"/>
<path d="M529.705 77.0911H488.94C482.54 77.0911 477.351 82.2791 477.351 88.6801C477.351 95.0801 482.54 100.268 488.94 100.268H529.705C536.105 100.268 541.294 95.0801 541.294 88.6801C541.294 82.2791 536.105 77.0911 529.705 77.0911Z" stroke="#E5E7EB" stroke-width="4"/>
<path d="M443.644 77.0911H402.879C396.479 77.0911 391.29 82.2791 391.29 88.6801C391.29 95.0801 396.479 100.268 402.879 100.268H443.644C450.044 100.268 455.233 95.0801 455.233 88.6801C455.233 82.2791 450.044 77.0911 443.644 77.0911Z" stroke="#E5E7EB" stroke-width="4"/>
<path d="M369.172 88.6801C369.172 82.2791 363.984 77.0911 357.583 77.0911C351.183 77.0911 345.995 82.2791 345.995 88.6801C345.995 95.0801 351.183 100.268 357.583 100.268C363.984 100.268 369.172 95.0801 369.172 88.6801Z" stroke="#E5E7EB" stroke-width="4"/>
<path d="M99.053 292.315H178.111V321.268H211.407V292.315H231.835V264.407H211.407V156.557H167.816L99.053 264.89V292.315ZM178.754 264.407H134.118V263.12L177.467 194.518H178.754V264.407ZM319.618 324.887C361.037 324.887 386.049 293.36 386.13 239.073C386.21 185.189 360.876 154.305 319.618 154.305C278.28 154.305 253.187 185.108 253.107 239.073C252.946 293.199 278.119 324.806 319.618 324.887ZM319.618 296.014C300.719 296.014 288.494 277.034 288.574 239.073C288.655 201.676 300.799 182.856 319.618 182.856C338.357 182.856 350.582 201.676 350.582 239.073C350.662 277.034 338.438 296.014 319.618 296.014ZM408.468 292.315H487.526V321.268H520.822V292.315H541.25V264.407H520.822V156.557H477.231L408.468 264.89V292.315ZM488.169 264.407H443.533V263.12L486.882 194.518H488.169V264.407Z" fill="#E5E7EB"/>
<path d="M81.547 86.4151C81.547 81.2661 77.372 77.0911 72.223 77.0911C67.073 77.0911 62.899 81.2661 62.899 86.4151C62.899 91.5651 67.073 95.7391 72.223 95.7391C77.372 95.7391 81.547 91.5651 81.547 86.4151Z" stroke="#E5E7EB" stroke-width="4"/>
<path d="M33.198 298.712C39.733 298.712 45.031 304.01 45.031 310.545C45.031 317.08 39.733 322.378 33.198 322.378C26.663 322.378 21.365 317.08 21.365 310.545C21.365 304.01 26.663 298.712 33.198 298.712Z" fill="#0E9F6E"/>
<path d="M622.904 170.957C614.979 175.532 604.846 172.817 600.27 164.892C595.695 156.967 598.41 146.834 606.335 142.258C614.26 137.683 624.393 140.398 628.969 148.323C633.544 156.248 630.829 166.381 622.904 170.957Z" fill="#0E9F6E"/>
<path d="M313.313 100.921C306.493 100.921 300.964 95.3919 300.964 88.5719C300.964 81.7519 306.493 76.2229 313.313 76.2229C320.133 76.2229 325.662 81.7519 325.662 88.5719C325.662 95.3919 320.133 100.921 313.313 100.921Z" fill="#E5E7EB"/>
<path d="M165.66 59.2681C174.737 59.2681 182.095 51.91 182.095 42.833C182.095 33.756 174.737 26.3979 165.66 26.3979C156.583 26.3979 149.225 33.756 149.225 42.833C149.225 51.91 156.583 59.2681 165.66 59.2681Z" fill="#0E9F6E"/>
<path d="M400.614 341.2C393.109 341.2 387.025 347.284 387.025 354.789C387.025 362.294 393.109 368.378 400.614 368.378C408.119 368.378 414.203 362.294 414.203 354.789C414.203 347.284 408.119 341.2 400.614 341.2Z" fill="#0E9F6E"/>
<path d="M149.26 393.358C142.362 393.358 136.77 387.766 136.77 380.868C136.77 373.97 142.362 368.378 149.26 368.378C156.158 368.378 161.75 373.97 161.75 380.868C161.75 387.766 156.158 393.358 149.26 393.358Z" fill="#E5E7EB"/>
<path d="M274.267 334.557C278.744 337.141 280.278 342.866 277.693 347.343C275.109 351.82 269.384 353.353 264.907 350.769C260.43 348.184 258.897 342.46 261.481 337.983C264.066 333.506 269.79 331.972 274.267 334.557Z" fill="#E5E7EB"/>
<path d="M582.957 74.4779L565.933 91.5019C565.313 92.1219 565.313 93.128 565.933 93.748C566.552 94.367 567.558 94.3669 568.178 93.7469L585.202 76.723C585.822 76.103 585.823 75.097 585.203 74.477C584.583 73.857 583.577 73.8579 582.957 74.4779Z" fill="#E5E7EB"/>
<path d="M581.291 86.668L576.382 91.577C575.762 92.197 575.762 93.203 576.382 93.822C577.001 94.442 578.007 94.442 578.627 93.822L583.536 88.913C584.157 88.293 584.157 87.287 583.537 86.667C582.917 86.047 581.911 86.047 581.291 86.668Z" fill="#E5E7EB"/>
<path d="M57.886 375.044L42.652 390.278C42.098 390.832 42.098 391.732 42.652 392.286L42.653 392.287C43.207 392.841 44.106 392.841 44.661 392.287L59.895 377.053C60.449 376.498 60.449 375.599 59.895 375.045L59.894 375.044C59.34 374.489 58.441 374.489 57.886 375.044Z" fill="#E5E7EB"/>
<path d="M56.395 385.95L52.001 390.344C51.447 390.898 51.447 391.798 52.001 392.352L52.002 392.353C52.556 392.907 53.455 392.907 54.01 392.353L58.404 387.959C58.959 387.404 58.959 386.505 58.404 385.951L58.403 385.95C57.849 385.395 56.95 385.395 56.395 385.95Z" fill="#E5E7EB"/>
<path d="M568.911 395.566L589.642 374.834C590.397 374.079 590.397 372.855 589.642 372.1C588.887 371.345 587.663 371.345 586.908 372.1L566.177 392.832C565.422 393.587 565.422 394.811 566.177 395.566C566.932 396.32 568.156 396.32 568.911 395.566Z" fill="#E5E7EB"/>
<path d="M570.94 380.723L576.919 374.744C577.674 373.989 577.674 372.765 576.919 372.01C576.164 371.255 574.94 371.255 574.186 372.01L568.206 377.989C567.451 378.744 567.451 379.968 568.206 380.723C568.961 381.478 570.185 381.478 570.94 380.723Z" fill="#E5E7EB"/>
<path fill-rule="evenodd" clip-rule="evenodd" d="M556.929 13.773H560.233C561.032 13.773 561.675 14.423 561.675 15.215V18.519C561.675 19.318 561.025 19.961 560.233 19.961H556.929C556.137 19.961 555.487 19.311 555.487 18.519V15.215C555.487 15.026 555.524 14.838 555.596 14.663C555.668 14.488 555.774 14.328 555.908 14.195C556.042 14.061 556.202 13.954 556.377 13.882C556.552 13.81 556.74 13.773 556.929 13.773ZM568.384 13.773H571.688C572.48 13.773 573.13 14.423 573.13 15.215V18.519C573.13 19.318 572.48 19.961 571.688 19.961H568.384C567.592 19.961 566.942 19.311 566.942 18.519V15.215C566.942 14.423 567.592 13.773 568.384 13.773ZM579.847 13.773H583.151C583.944 13.773 584.594 14.423 584.594 15.215V18.519C584.594 19.318 583.944 19.961 583.151 19.961H579.847C579.055 19.961 578.405 19.311 578.405 18.519V15.215C578.405 15.026 578.442 14.838 578.514 14.663C578.586 14.488 578.692 14.328 578.826 14.195C578.96 14.061 579.12 13.954 579.295 13.882C579.47 13.81 579.658 13.773 579.847 13.773ZM591.303 13.773H594.607C595.399 13.773 596.049 14.423 596.049 15.215V18.519C596.049 19.318 595.399 19.961 594.607 19.961H591.303C590.92 19.961 590.553 19.809 590.281 19.539C590.01 19.269 589.856 18.902 589.854 18.519V15.215C589.858 14.833 590.012 14.467 590.283 14.198C590.554 13.928 590.921 13.775 591.303 13.773ZM602.759 13.773H606.063C606.862 13.773 607.512 14.423 607.512 15.215V18.519C607.512 19.318 606.862 19.961 606.063 19.961H602.759C601.967 19.961 601.317 19.311 601.317 18.519V15.215C601.317 14.423 601.967 13.773 602.759 13.773ZM568.804 26.265H572.108C572.901 26.265 573.551 26.915 573.551 27.707V31.018C573.551 31.81 572.901 32.46 572.108 32.46H568.804C568.005 32.46 567.362 31.81 567.362 31.018V27.714C567.361 27.524 567.397 27.336 567.469 27.16C567.541 26.984 567.647 26.824 567.781 26.689C567.915 26.555 568.075 26.448 568.25 26.375C568.426 26.302 568.614 26.265 568.804 26.265ZM580.26 26.265H583.564C584.356 26.265 585.006 26.915 585.006 27.707V31.018C585.006 31.81 584.356 32.46 583.564 32.46H580.26C579.468 32.46 578.818 31.81 578.818 31.018V27.714C578.817 27.524 578.853 27.336 578.925 27.16C578.997 26.984 579.103 26.824 579.237 26.689C579.371 26.555 579.531 26.448 579.706 26.375C579.882 26.302 580.07 26.265 580.26 26.265ZM591.716 26.265H595.02C595.819 26.265 596.469 26.915 596.469 27.707V31.018C596.467 31.401 596.313 31.768 596.042 32.038C595.77 32.308 595.403 32.46 595.02 32.46H591.716C590.924 32.46 590.274 31.81 590.274 31.018V27.714C590.274 26.915 590.924 26.265 591.716 26.265ZM579.847 0.353031H583.151C583.944 0.353031 584.594 1.00303 584.594 1.79503V5.10003C584.594 5.89803 583.944 6.54203 583.151 6.54203H579.847C579.055 6.54203 578.405 5.89203 578.405 5.10003V1.79503C578.405 1.60563 578.442 1.41793 578.514 1.24273C578.586 1.06763 578.692 0.908532 578.826 0.774532C578.96 0.640532 579.12 0.534332 579.295 0.462032C579.47 0.389732 579.658 0.352631 579.847 0.353031ZM591.303 0.353031H594.607C595.399 0.353031 596.049 1.00303 596.049 1.79503V5.10003C596.049 5.89803 595.399 6.54203 594.607 6.54203H591.303C590.92 6.54183 590.553 6.39003 590.281 6.11983C590.01 5.84963 589.856 5.48303 589.854 5.10003V1.79503C589.858 1.41273 590.012 1.04734 590.283 0.777637C590.554 0.507837 590.921 0.355431 591.303 0.353031Z" fill="#E5E7EB"/>
<path fill-rule="evenodd" clip-rule="evenodd" d="M45.382 235.922C20.742 235.922 0.765015 215.663 0.765015 190.676C0.765015 165.689 20.742 145.431 45.382 145.431C70.022 145.431 89.999 165.689 89.999 190.676C89.999 215.663 70.022 235.922 45.382 235.922Z" fill="#0E9F6E"/>
<path d="M61.357 171.476L42.509 191.585L31.193 179.521" stroke="white" stroke-width="7.405" stroke-linecap="round" stroke-linejoin="round"/>
<path d="M23.678 210.835L42.526 190.726L53.842 202.79" stroke="white" stroke-width="7.405" stroke-linecap="round" stroke-linejoin="round"/>
</svg>

<svg xmlns="http://www.w3.org/2000/svg" width="632" height="422" fill="none"><path fill="#0F172A" stroke="#E5E7EB" stroke-width="4" d="M585.768 49.9131H53.531c-15.464 0-28 12.536-28 28V391.6c0 15.464 12.536 28 28 28h532.237c15.464 0 28-12.536 28-28V77.9131c0-15.464-12.536-28-28-28Z"/><path stroke="#E5E7EB" stroke-width="4" d="M529.705 77.0911H488.94c-6.4 0-11.589 5.188-11.589 11.589 0 6.4 5.189 11.5879 11.589 11.5879h40.765c6.4 0 11.589-5.1879 11.589-11.5879 0-6.401-5.189-11.589-11.589-11.589ZM443.644 77.0911h-40.765c-6.4 0-11.589 5.188-11.589 11.589 0 6.4 5.189 11.5879 11.589 11.5879h40.765c6.4 0 11.589-5.1879 11.589-11.5879 0-6.401-5.189-11.589-11.589-11.589ZM369.172 88.6801c0-6.401-5.188-11.589-11.589-11.589-6.4 0-11.588 5.188-11.588 11.589 0 6.4 5.188 11.5879 11.588 11.5879 6.401 0 11.589-5.1879 11.589-11.5879Z"/><path fill="#E5E7EB" d="M99.053 292.315h79.058v28.953h33.296v-28.953h20.428v-27.908h-20.428v-107.85h-43.591L99.053 264.89v27.425Zm79.701-27.908h-44.636v-1.287l43.349-68.602h1.287v69.889Zm140.864 60.48c41.419 0 66.431-31.527 66.512-85.814.08-53.884-25.254-84.768-66.512-84.768-41.338 0-66.431 30.803-66.511 84.768-.161 54.126 25.012 85.733 66.511 85.814Zm0-28.873c-18.899 0-31.124-18.98-31.044-56.941.081-37.397 12.225-56.217 31.044-56.217 18.739 0 30.964 18.82 30.964 56.217.08 37.961-12.144 56.941-30.964 56.941Zm88.85-3.699h79.058v28.953h33.296v-28.953h20.428v-27.908h-20.428v-107.85h-43.591L408.468 264.89v27.425Zm79.701-27.908h-44.636v-1.287l43.349-68.602h1.287v69.889Z"/><path stroke="#E5E7EB" stroke-width="4" d="M81.547 86.4151c0-5.149-4.175-9.324-9.324-9.324-5.15 0-9.324 4.175-9.324 9.324 0 5.15 4.174 9.324 9.324 9.324 5.149 0 9.324-4.174 9.324-9.324Z"/><path fill="#0E9F6E" d="M33.198 298.712c6.535 0 11.833 5.298 11.833 11.833s-5.298 11.833-11.833 11.833-11.833-5.298-11.833-11.833 5.298-11.833 11.833-11.833ZM622.904 170.957c-7.925 4.575-18.058 1.86-22.634-6.065-4.575-7.925-1.86-18.058 6.065-22.634 7.925-4.575 18.058-1.86 22.634 6.065 4.575 7.925 1.86 18.058-6.065 22.634Z"/><path fill="#E5E7EB" d="M313.313 100.921c-6.82 0-12.349-5.5291-12.349-12.3491s5.529-12.349 12.349-12.349 12.349 5.529 12.349 12.349-5.529 12.3491-12.349 12.3491Z"/><path fill="#0E9F6E" d="M165.66 59.2681c9.077 0 16.435-7.3581 16.435-16.4351 0-9.077-7.358-16.4351-16.435-16.4351-9.077 0-16.435 7.3581-16.435 16.4351 0 9.077 7.358 16.4351 16.435 16.4351ZM400.614 341.2c-7.505 0-13.589 6.084-13.589 13.589 0 7.505 6.084 13.589 13.589 13.589 7.505 0 13.589-6.084 13.589-13.589 0-7.505-6.084-13.589-13.589-13.589Z"/><path fill="#E5E7EB" d="M149.26 393.358c-6.898 0-12.49-5.592-12.49-12.49 0-6.898 5.592-12.49 12.49-12.49 6.898 0 12.49 5.592 12.49 12.49 0 6.898-5.592 12.49-12.49 12.49ZM274.267 334.557c4.477 2.584 6.011 8.309 3.426 12.786-2.584 4.477-8.309 6.01-12.786 3.426-4.477-2.585-6.01-8.309-3.426-12.786 2.585-4.477 8.309-6.011 12.786-3.426ZM582.957 74.4779l-17.024 17.024c-.62.62-.62 1.6261 0 2.2461.619.619 1.625.6189 2.245-.0011l17.024-17.0239c.62-.62.621-1.626.001-2.246-.62-.62-1.626-.6191-2.246.0009ZM581.291 86.668l-4.909 4.909c-.62.62-.62 1.626 0 2.245.619.62 1.625.62 2.245 0l4.909-4.909c.621-.62.621-1.626.001-2.246-.62-.62-1.626-.62-2.246.001ZM57.886 375.044l-15.234 15.234c-.554.554-.554 1.454 0 2.008l.001.001c.554.554 1.453.554 2.008 0l15.234-15.234c.554-.555.554-1.454 0-2.008l-.001-.001c-.554-.555-1.453-.555-2.008 0ZM56.395 385.95l-4.394 4.394c-.554.554-.554 1.454 0 2.008l.001.001c.554.554 1.453.554 2.008 0l4.394-4.394c.555-.555.555-1.454 0-2.008l-.001-.001c-.554-.555-1.453-.555-2.008 0ZM568.911 395.566l20.731-20.732c.755-.755.755-1.979 0-2.734-.755-.755-1.979-.755-2.734 0l-20.731 20.732c-.755.755-.755 1.979 0 2.734.755.754 1.979.754 2.734 0ZM570.94 380.723l5.979-5.979c.755-.755.755-1.979 0-2.734-.755-.755-1.979-.755-2.733 0l-5.98 5.979c-.755.755-.755 1.979 0 2.734.755.755 1.979.755 2.734 0Z"/><path fill="#E5E7EB" fill-rule="evenodd" d="M556.929 13.773h3.304c.799 0 1.442.65 1.442 1.442v3.304c0 .799-.65 1.442-1.442 1.442h-3.304c-.792 0-1.442-.65-1.442-1.442v-3.304c0-.189.037-.377.109-.552.072-.175.178-.335.312-.468a1.4397 1.4397 0 0 1 1.021-.422Zm11.455 0h3.304c.792 0 1.442.65 1.442 1.442v3.304c0 .799-.65 1.442-1.442 1.442h-3.304c-.792 0-1.442-.65-1.442-1.442v-3.304c0-.792.65-1.442 1.442-1.442Zm11.463 0h3.304c.793 0 1.443.65 1.443 1.442v3.304c0 .799-.65 1.442-1.443 1.442h-3.304c-.792 0-1.442-.65-1.442-1.442v-3.304c0-.189.037-.377.109-.552.072-.175.178-.335.312-.468a1.4397 1.4397 0 0 1 1.021-.422Zm11.456 0h3.304c.792 0 1.442.65 1.442 1.442v3.304c0 .799-.65 1.442-1.442 1.442h-3.304c-.383 0-.75-.152-1.022-.422-.271-.27-.425-.637-.427-1.02v-3.304c.004-.382.158-.748.429-1.017.271-.27.638-.423 1.02-.425Zm11.456 0h3.304c.799 0 1.449.65 1.449 1.442v3.304c0 .799-.65 1.442-1.449 1.442h-3.304c-.792 0-1.442-.65-1.442-1.442v-3.304c0-.792.65-1.442 1.442-1.442Zm-33.955 12.492h3.304c.793 0 1.443.65 1.443 1.442v3.311c0 .792-.65 1.442-1.443 1.442h-3.304c-.799 0-1.442-.65-1.442-1.442v-3.304a1.4416 1.4416 0 0 1 .419-1.025c.134-.134.294-.241.469-.314.176-.073.364-.11.554-.11Zm11.456 0h3.304c.792 0 1.442.65 1.442 1.442v3.311c0 .792-.65 1.442-1.442 1.442h-3.304c-.792 0-1.442-.65-1.442-1.442v-3.304a1.4416 1.4416 0 0 1 .419-1.025c.134-.134.294-.241.469-.314.176-.073.364-.11.554-.11Zm11.456 0h3.304c.799 0 1.449.65 1.449 1.442v3.311c-.002.383-.156.75-.427 1.02-.272.27-.639.422-1.022.422h-3.304c-.792 0-1.442-.65-1.442-1.442v-3.304c0-.799.65-1.449 1.442-1.449ZM579.847.353h3.304c.793 0 1.443.65 1.443 1.442V5.1c0 .798-.65 1.442-1.443 1.442h-3.304c-.792 0-1.442-.65-1.442-1.442V1.795c0-.1894.037-.377.109-.5523a1.4325 1.4325 0 0 1 .781-.7807c.175-.0723.363-.1094.552-.109Zm11.456 0h3.304c.792 0 1.442.65 1.442 1.442V5.1c0 .798-.65 1.442-1.442 1.442h-3.304a1.451 1.451 0 0 1-1.022-.4222 1.4515 1.4515 0 0 1-.427-1.0198V1.795c.004-.3823.158-.7477.429-1.0174a1.4597 1.4597 0 0 1 1.02-.4246Z" clip-rule="evenodd"/><path fill="#0E9F6E" fill-rule="evenodd" d="M45.382 235.922c-24.64 0-44.617-20.259-44.617-45.246 0-24.987 19.977-45.245 44.617-45.245 24.64 0 44.617 20.258 44.617 45.245s-19.977 45.246-44.617 45.246Z" clip-rule="evenodd"/><path stroke="#fff" stroke-linecap="round" stroke-linejoin="round" stroke-width="7.405" d="m61.357 171.476-18.848 20.109-11.316-12.064"/><path stroke="#fff" stroke-linecap="round" stroke-linejoin="round" stroke-width="7.405" d="m23.678 210.835 18.848-20.109 11.316 12.064"/></svg>
